!!!SOCIAL_FUNCTION:	songs with treatment of the sick
!!!PDT:	1943
!!!OTL: No_20_Doctor's_Song_(a).krn
!!!REG: British Columbia
**kern
*staff1
=1-
*clefF4
*k[f#]
*M3/4
4G\
8.A\L
16B\Jk
8A\L
8G\J
=2||
*M2/4
4B\
12A\L
12B\
[12A\J
=3||
*M3/4
4..A\]
16G\
4A\
=4||
*M2/4
4.G\
8r
=5||
*M3/4
4A\
4B\
8A\L
8G\J
=6||
*M2/4
4A\
12G\L
12A\
[12G\J
=7
(4..G\]
16E\)
=8
4G\
16E\LK
[8.D\J
=9
4D\]
4r
=10||
*M3/4
4E\
4D\
8C/L
8AA/J
=11||
*M2/4
4E\
4D\
=12||
*M3/4
2C/
8C/L
8AA/J
=13||
*M2/4
2GG/
=14||
*M3/4
4GG/
4AA/
8GG/
8r
=15||
*M2/4
4C/
4AA/
=16
2GG/
=17
2GG/
==
*-
